svg/material-icons/emoji_emotions/materialiconstwotone/20px.svg

<svg xmlns="http://www.w3.org/2000/svg" width="20" height="20" viewBox="0 0 20 20"><path d="M16 10c0-3.31-2.69-6-6.01-6-.17 0-.35.01-.52.03C6.41 4.29 4 6.87 4 10s2.41 5.71 5.47 5.97c.17.02.35.03.52.03 3.32 0 6.01-2.69 6.01-6zm-3-3c.55 0 1 .45 1 1s-.45 1-1 1-1-.45-1-1 .45-1 1-1zM7 7c.55 0 1 .45 1 1s-.45 1-1 1-1-.45-1-1 .45-1 1-1zm6.86 4c-.45 1.72-2 3-3.86 3s-3.41-1.28-3.86-3h7.72z" opacity=".3"/><path d="M10 14c1.86 0 3.41-1.28 3.86-3H6.14c.45 1.72 2 3 3.86 3z"/><path d="M9.99 3C6.13 3 3 6.14 3 10s3.13 7 6.99 7c3.87 0 7.01-3.14 7.01-7s-3.14-7-7.01-7zm-.52 12.97C6.41 15.71 4 13.13 4 10s2.41-5.71 5.47-5.97c.17-.02.35-.03.52-.03C13.31 4 16 6.69 16 10s-2.69 6-6.01 6c-.17 0-.35-.01-.52-.03z"/><circle cx="13" cy="8" r="1"/><circle cx="7" cy="8" r="1"/></svg>

<svg xmlns="http://www.w3.org/2000/svg" enable-background="new 0 0 20 20" height="20" viewBox="0 0 20 20" width="20"><g><rect fill="none" height="20" width="20"/></g><g><g/><g><g opacity=".3"><path d="M16,10c0-3.31-2.69-6-6.01-6C9.82,4,9.64,4.01,9.47,4.03C6.41,4.29,4,6.87,4,10s2.41,5.71,5.47,5.97 C9.64,15.99,9.82,16,9.99,16C13.31,16,16,13.31,16,10z M13,7c0.55,0,1,0.45,1,1c0,0.55-0.45,1-1,1s-1-0.45-1-1 C12,7.45,12.45,7,13,7z M7,7c0.55,0,1,0.45,1,1c0,0.55-0.45,1-1,1S6,8.55,6,8C6,7.45,6.45,7,7,7z M13.86,11 c-0.45,1.72-2,3-3.86,3s-3.41-1.28-3.86-3H13.86z"/></g><path d="M10,14c1.86,0,3.41-1.28,3.86-3H6.14C6.59,12.72,8.14,14,10,14z"/><path d="M9.99,3C6.13,3,3,6.14,3,10s3.13,7,6.99,7c3.87,0,7.01-3.14,7.01-7S13.86,3,9.99,3z M9.47,15.97C6.41,15.71,4,13.13,4,10 s2.41-5.71,5.47-5.97C9.64,4.01,9.82,4,9.99,4c0,0,0,0,0,0C13.31,4,16,6.69,16,10s-2.69,6-6.01,6c0,0,0,0,0,0 C9.82,16,9.64,15.99,9.47,15.97z"/><circle cx="13" cy="8" r="1"/><circle cx="7" cy="8" r="1"/></g></g></svg>
